!!!COM: (Folklore canadien)
!!!LYR: Paroles de F.-X. BURQUE, ptre
!!!PTL@@FR: Les 100 plus belles chansons
!!!OTL@@FR:Vive le canadien
!!!PUB:La Bonne Chanson, inc.
!!!YEM: On ne peut reproduire, enregistrer ou diffuser en tout ou en partie le présent ouvrage, sous quelque procédé que ce soit, électronique, mécanique, photographique, sonore, magnétique ou autre, sans avoir obtenu au préalable l'autorisation écrite de l'éditrice.
!!!PDT: 2011
!!!SMA:2012 Bibliothèque nationale du Québec; Biblothèque nationale du Canada
!!!AGN-Laforte: Chanson en laisse (avec refrain), 8:2(8+8)
!!!AGN-type: hymne nationale?
!!!AGN-rime: monorime (aa)
!!!EED: Isaac Howie
!!!EEV: 2025/May/20
**kern	**text	**text	**text	**text	**text	**text	**text	**text
*clefG2	*	*	*	*	*	*	*	*
*k[b-e-]	*	*	*	*	*	*	*	*
*D:	*	*	*	*	*	*	*	*
*M6/8	*	*	*	*	*	*	*	*
*	*v:1	*v:2	*v:3	*v:4	*v:5	*v:6	*v:7	*v:8
*	*pline:1	*pline:2	*pline:3	*pline:4	*pline:5	*pline:6	*pline:7	*pline:8
!!!OMD:Avec entrain
8f	Le	De	Tout	Il	A-	Dans	Un	Au
4b-	Ca-	grand	plein	est	vec	ses	jour	Pa-
8cc	-na-	ma-	de	af-	sa	a-	il	-ra-
=1	=1	=1	=1	=1	=1	=1	=1	=1
4b-	-dien,	-tin,	foi,	-fable,	femme	-mours	lui	-dis
8f	au	part	le	hon-	et	il	fau-	di-
4g	cœur	en	coeur	-nête	ses	est	-dra	-re-
8g	vail-	chan-	fer-	et	en-	con-	pour-	-cte-
=2	=2	=2	=2	=2	=2	=2	=2	=2
4.f	-lant,	-tant,	-vent,	franc,	-fants,	-stant,	-tant,	-ment,
*	*refrain	*	*	*	*	*	*	*
*	*italic	*	*	*	*	*	*	*
4b-	En	.	.	.	.	.	.	.
8cc	rou-	.	.	.	.	.	.	.
!!LO:PB:g=original
=3	=3	=3	=3	=3	=3	=3	=3	=3
4b-	-lant	.	.	.	.	.	.	.
8f	ma	.	.	.	.	.	.	.
4.g	bou-	.	.	.	.	.	.	.
=4	=4	=4	=4	=4	=4	=4	=4	=4
4f	-le,	.	.	.	.	.	.	.
*	*Xrefrain	*	*	*	*	*	*	*
*	*Xitalic	*	*	*	*	*	*	*
=:|	=:|	=:|	=:|	=:|	=:|	=:|	=:|	=:|
*	*v:1	*v:2	*v:3	*v:4	*v:5	*v:6	*v:7	*
8f	Est	Re-	A	Ho-	Il	En	Quit-	Il
4b-	tou-	-vient	son	-spi-	vit	a-	-ter	mon-
8b-	-jours	le	é-	-ta-	heu-	-mi-	ses	-te-
=5	=5	=5	=5	=5	=5	=5	=5	=5
4cc	gai,	soir	-glise	-lier,	-reux,	-tié,	a-	.-ra
8b-	tou-	en	il	po-	bien	l'est	mies,	cer-
4dd	-jours	tur-	va	-li,	sim-	tout	ses	-tai-
8b-	con-	-lu-	sou-	ga-	-ple-	au-	pa-	-ne-
!!LO:PB:g=original
=6	=6	=6	=6	=6	=6	=6	=6	=6
4cc	-tent,	-tant,	-vent,	-lant,	-ment,	-tant,	-rents,	-ment,
*	*refrain	*	*	*	*	*	*	*
*	*italic	*	*	*	*	*	*	*
8b-	Rou-	.	.	.	.	.	.	.
4dd	li,	.	.	.	.	.	.	.
4b-	rou-	.	.	.	.	.	.	.
=7	=7	=7	=7	=7	=7	=7	=7	=7
4cc	-lant,	.	.	.	.	.	.	.
8b-	ma	.	.	.	.	.	.	.
8dd	bou-	.	.	.	.	.	.	.
8cc	-le	.	.	.	.	.	.	.
8b-	rou-	.	.	.	.	.	.	.
=8	=8	=8	=8	=8	=8	=8	=8	=8
4.cc	-lant,	.	.	.	.	.	.	.
4dd	En	.	.	.	.	.	.	.
8cc	rou-	.	.	.	.	.	.	.
!!LO:PB:g=original
=9	=9	=9	=9	=9	=9	=9	=9	=9
4b-	-lant	.	.	.	.	.	.	.
8f	ma	.	.	.	.	.	.	.
8g	bou-	.	.	.	.	.	.	.
8f	-le	.	.	.	.	.	.	.
8g	rou-	.	.	.	.	.	.	.
=10	=10	=10	=10	=10	=10	=10	=10	=10
4.f	-lant,	.	.	.	.	.	.	.
4dd	En	.	.	.	.	.	.	.
8cc	rou-	.	.	.	.	.	.	.
=11	=11	=11	=11	=11	=11	=11	=11	=11
4b-	lant	.	.	.	.	.	.	.
8f	ma	.	.	.	.	.	.	.
(4g	bou-	.	.	.	.	.	.	.
8a)	.	.	.	.	.	.	.	.
=12	=12	=12	=12	=12	=12	=12	=12	=12
4b-	-le.	.	.	.	.	.	.	.
*	*Xitalic	*	*	*	*	*	*	*
*	*Xrefrain	*	*	*	*	*	*	*
==	==	==	==	==	==	==	==	==
*-	*-	*-	*-	*-	*-	*-	*-	*-
